X:29
T:Trip to Goree. Ru2.029, A
%%VWML:RutherfordVol2-2249-p15-0
F:http://www.vwml.org/record/RutherfordVol2/2249/p15
B:RUTHERFORD Complete Collection of 200 Country Dances Vol.2; 1759.
Z:vmp.Mike Hicken 2015 www.village-music-project.org.uk
M:6/8
Q:3/8=110
K:D
D3 A2d|(c/d/ec) d2A|BGB AFA|GEG F2A|
d3 A2=c|BGB AFA|Bgf edc|d3 D3 :|
|: f3 d2e|f2g agf|e3 c2d|e2f gfe|
d3 dcB|A2G FGA|Bgf edc|d3D3 :|
W:
W: First Cu: set and leat thro the 2d Cu: and cast
W: up .|  the 2d Cu: do the same :|  Hands round 4
W: .|.  cross over and half figure :||:  set contrary
W: corners and turn :||.  Hands four at bottom
W: Right and left at top :|
T:Crack of the Whip. Ru2.030, The
L:1/8
B:RUTHERFORD Complete Collection of 200 Country Dances Vol.2; 1759.
Z:vmp.Mike Hicken 2015 www.village-music-project.org.uk
M:6/8
Q:3/8=110
K:F
F2A c2A|BdB c2A|BGG dGG|BGG dGG|
F2A c2A|BdB c2B|AFF cFF|AFF cFF :|
|: fcA fcA|fcA fcA|gag gag|gag gag|
fcA fcA|fdB c2B|AFF cFF|AFF cFF :|
W:
W: Cast off and Hands 4 with the 3d Cu .|  cast up
W: and Hands 4 at top :|  cross over two Cu: .|.  lead
W: to the top foot it and cast off :||:  turn cross corners
W: and your Partner :||.  lead out sides and turn it
W: out :|
|:
